!!!SOCIAL_FUNCTION:	bird dance songs
!!!PDT:	1956
!!!OTL: No_108_Hinata_Dance_Song_(d).krn
!!!LANG: Non-Tone
!!!LING_GROUP: Muskogean
!!!REG: Florida
**kern
*staff1
=1-
*clefF4
*k[f#c#g#d#]
*M2/4
8.r
16E\
8.E\L
16B\Jk
=2!|:
(4.B\
8A\
=3
8G#\L)
16G#\L
16G#\JJ
8.B\L
16A\Jk
=4
12G#\L
12A\
12G#\J
(8.A\L
16G#\Jk)
=5
16E\LL
16E\J
8E\J
8.E\L
16G#\Jk
=6||
*M5/8
16E\LL
16E\J
8E\
16A\L
16G#\J
(8A\
8G#\J)
=7||
*M2/4
12E\L
12E\
12E\J
4E\
=8
12BB\L
12E\
12E\J
4E\
=9
12r
12E\L
12E\J
8.E\L
16G#\Jk
=10||
*M5/8
16E\LL
16E\J
8E\
16A\L
16G#\J
(8A\
8G#\J)
=11||
*M3/4
12E\L
12E\
12E\J
8.E\L
16E\Jk
8BB/
8r
=12||
*M2/4
4.E\
16E\LL
16E\JJ
=13
8.E\L
16E\Jk
8.E\L
16B\Jk
==:|!
*-
